X: 33114
T: Prince's Feather, The
R: reel
M: 4/4
K: Fmajor
~F3 A cA (3AAA|cAcd cAGA|FAcd cdfd|cFAc dG (3GGG|
dG (3GGG dGcB|AcBG AFFE|Fffe ~f2 cB|AcBG AFF:|
~G3 F GC (3CCC|EGAc BAGA|F2 cF dFcF|Acfe dcBA|
G^FGA GC (3CCC|EGAc BAGA|Fffe ~f2 cB|AcBG AFF:|

